X: 5223
T: Broderick Brothers' Bike, The
R: mazurka
M: 3/4
K: Gmajor
|:d ed|d2 gd ed|B2 B^A B=A|G2 GD GB|A3 d ed|
dg gd ed|Bd B^A B=A|GF GD Ad|G3:|
K: Gmin
B AG|A2 AD cA|B2 GB AB|A2 Ac BA|B3 A GD|
Ad ^cd =cA|Bc de dG|^FA dc BA|G3 B AG|
A^G AD cA|BA GB AB|c=B cF fe|e2 d^c d2|
d^f ae dc|Bc de dG|^F2 dc BF|G2 G||

